build/img/links/twitter.svg

<svg width="21" height="17" viewBox="0 0 21 17" fill="none" xmlns="http://www.w3.org/2000/svg">
<path d="M20.9163 2.1525C20.1355 2.49352 19.3085 2.71712 18.4622 2.81604C19.3505 2.29441 20.0185 1.4672 20.3413 0.488961C19.4997 0.978886 18.5817 1.32396 17.6257 1.50979C17.2232 1.08813 16.7389 0.752906 16.2025 0.524563C15.6662 0.29622 15.0889 0.17955 14.5059 0.181669C12.1455 0.181669 10.232 2.06709 10.232 4.39C10.232 4.71917 10.2695 5.04104 10.3424 5.34834C8.64923 5.26781 6.99146 4.83522 5.47485 4.07817C3.95824 3.32112 2.61609 2.25623 1.53405 0.951461C1.1547 1.59146 0.955315 2.32207 0.956966 3.06604C0.957692 3.76184 1.13179 4.44649 1.46352 5.05812C1.79525 5.66975 2.27416 6.18908 2.85697 6.56917C2.17934 6.54729 1.51636 6.36638 0.921549 6.04104V6.09313C0.921549 8.13271 2.39551 9.83375 4.34863 10.2213C3.98156 10.3186 3.60341 10.368 3.22363 10.3681C2.94759 10.3681 2.67988 10.3421 2.41842 10.29C2.69768 11.1316 3.23208 11.8653 3.9474 12.3893C4.66273 12.9133 5.52347 13.2015 6.41009 13.214C4.88933 14.3854 3.0224 15.0182 1.1028 15.0129C0.756966 15.0129 0.417383 14.9921 0.0830078 14.9546C2.04265 16.1949 4.31487 16.8518 6.63405 16.8483C14.4955 16.8483 18.7934 10.4348 18.7934 4.87334L18.7788 4.32854C19.6172 3.73862 20.3415 3.0013 20.9163 2.1525Z" fill="#F3F3F3"/>
</svg>

<svg width="21" height="17" fill="none" xmlns="http://www.w3.org/2000/svg"><path d="M20.916 2.152a8.637 8.637 0 01-2.454.664 4.24 4.24 0 001.88-2.327c-.842.49-1.76.835-2.716 1.02a4.291 4.291 0 00-3.12-1.327c-2.36 0-4.274 1.885-4.274 4.208 0 .33.038.651.11.958A12.196 12.196 0 011.534.951a4.13 4.13 0 00-.577 2.115 4.188 4.188 0 001.9 3.503 4.324 4.324 0 01-1.935-.528v.052c0 2.04 1.474 3.74 3.427 4.128a4.395 4.395 0 01-1.125.147c-.276 0-.544-.026-.806-.078a4.269 4.269 0 003.992 2.924 8.658 8.658 0 01-5.307 1.799c-.346 0-.686-.02-1.02-.058a12.215 12.215 0 006.551 1.893c7.861 0 12.16-6.413 12.16-11.975l-.015-.544a8.463 8.463 0 002.137-2.176z" fill="#F3F3F3"/></svg>
